X: 160
T: Miss McLeod's
M:4/4
O:Isle of Skye. First printed in Niel Gow's Fifth Collection of Strathspey Reels of 1809
L:1/8
R:reel
K:G
"G"G2BG dGBG|B2 BA BcBA|G2 BG dGBG|"D"AGFG AcBA|
"G"G2 BG dGBG|B2 BA Bc d2|"C"efed "D"Bdef|"G"gedB "D"AcBA:|
|: "G"G2 gf edeg|B2 BA BcBA|G2 gf edeg|"D"a2 ab agef|
"G"g2 gf edeg|B2 BA Bc d2|"C"efed "D"Bdef|"G"gedB "D"AcBA:|


